X:1
T:Hymn  " "
M:3/4
L:1/8
Q:80
C:/JHP
S:BY COOL SILOAM'S SHADY RILL
K:HP
[| A2|
{gfg}f4e2|
{Gdc}d4c2|  !
{gcd}c2{e}B2{Gdc}d2|
{e}A4a2| |
{g}a2{f}g2f2|  !
{gfg}f2e2d2|
{gde}d2c4|
-c4{G}A2| |  !
{gfg}f4e2|
{Gdc}d4c2|
{gcd}c2{e}B2{Gdc}d2|  !
{e}A4a2| |
{g}a2{f}g2{a}e2|
{Gdc}d2{g}f2e2|  !
{Gdc}d6|
{gdG}d4|]

